src/images/github.svg

<svg xmlns="http://www.w3.org/2000/svg" width="375" viewBox="0 0 375 375" height="375" version="1.0"><path fill="#FFF" d="M-37.5 -37.5H412.5V412.5H-37.5z"/><path fill="#FFF" d="M-37.5 -37.5H412.5V412.5H-37.5z"/><path fill="#737373" d="M-37.5 -37.5H412.5V412.5H-37.5z"/><path fill="#FFF" d="M 187.5 3.125 C 83.953125 3.125 0 87.078125 0 190.625 C 0 278.484375 60.5 352 142.0625 372.34375 C 141.1875 369.8125 140.625 366.875 140.625 363.234375 L 140.625 331.1875 C 133.015625 331.1875 120.265625 331.1875 117.0625 331.1875 C 104.234375 331.1875 92.828125 325.671875 87.296875 315.421875 C 81.15625 304.03125 80.09375 286.609375 64.875 275.953125 C 60.359375 272.40625 63.796875 268.359375 69 268.90625 C 78.609375 271.625 86.578125 278.21875 94.078125 288 C 101.546875 297.796875 105.0625 300.015625 119.015625 300.015625 C 125.78125 300.015625 135.90625 299.625 145.4375 298.125 C 150.5625 285.109375 159.421875 273.125 170.25 267.46875 C 107.8125 261.046875 78.015625 229.984375 78.015625 187.8125 C 78.015625 169.65625 85.75 152.09375 98.890625 137.296875 C 94.578125 122.609375 89.15625 92.65625 100.546875 81.25 C 128.640625 81.25 145.625 99.46875 149.703125 104.390625 C 163.703125 99.59375 179.078125 96.875 195.234375 96.875 C 211.421875 96.875 226.859375 99.59375 240.890625 104.421875 C 244.921875 99.53125 261.921875 81.25 290.078125 81.25 C 301.515625 92.671875 296.03125 122.75 291.671875 137.40625 C 304.734375 152.171875 312.421875 169.6875 312.421875 187.8125 C 312.421875 229.953125 282.671875 261 220.328125 267.453125 C 237.484375 276.40625 250 301.5625 250 320.515625 L 250 363.234375 C 250 364.859375 249.640625 366.03125 249.453125 367.421875 C 322.515625 341.8125 375 272.4375 375 190.625 C 375 87.078125 291.046875 3.125 187.5 3.125 Z M 187.5 3.125"/></svg>

<svg xmlns="http://www.w3.org/2000/svg" width="375" height="375" version="1.0"><path fill="#FFF" d="M-37.5-37.5h450v450h-450z"/><path fill="#FFF" d="M-37.5-37.5h450v450h-450z"/><path fill="#737373" d="M-37.5-37.5h450v450h-450z"/><path fill="#FFF" d="M187.5 3.125C83.953 3.125 0 87.078 0 190.625 0 278.485 60.5 352 142.063 372.344c-.875-2.531-1.438-5.469-1.438-9.11v-32.046h-23.563c-12.828 0-24.234-5.516-29.765-15.766-6.14-11.39-7.203-28.813-22.422-39.469-4.516-3.547-1.078-7.594 4.125-7.047 9.61 2.719 17.578 9.313 25.078 19.094 7.469 9.797 10.984 12.016 24.938 12.016 6.765 0 16.89-.391 26.421-1.891 5.125-13.016 13.985-25 24.813-30.656-62.438-6.422-92.234-37.485-92.234-79.656 0-18.157 7.734-35.72 20.875-50.516-4.313-14.688-9.735-44.64 1.656-56.047 28.094 0 45.078 18.219 49.156 23.14 14-4.796 29.375-7.515 45.531-7.515 16.188 0 31.625 2.719 45.657 7.547 4.03-4.89 21.03-23.172 49.187-23.172 11.438 11.422 5.953 41.5 1.594 56.156 13.062 14.766 20.75 32.281 20.75 50.406 0 42.141-29.75 73.188-92.094 79.641 17.156 8.953 29.672 34.11 29.672 53.063v42.718c0 1.625-.36 2.797-.547 4.188C322.516 341.812 375 272.437 375 190.625c0-103.547-83.953-187.5-187.5-187.5Zm0 0"/></svg>
